src/main/webapp/images/gitlab-project.svg

<?xml version="1.0" encoding="UTF-8"?>
<svg
  xmlns="http://www.w3.org/2000/svg"
  width="16"
  height="16"
  viewBox="0 0 16 16"
  fill="currentColor"
>
  <path d="M6 9H5V8h1v1zM6 6H5v1h1V6zM6 4H5v1h1V4zM6 2H5v1h1V2zm8-1v12c0 .55-.45 1-1 1H8v2L6.5 14.5 5 16v-2H3c-.55 0-1-.45-1-1V1c0-.55.45-1 1-1h10c.55 0 1 .45 1 1zM13 11H3v2h2v-1h3v1h5v-2zM13 1H4v9h9V1z"/>
</svg>

<?xml version="1.0" encoding="UTF-8" standalone="no"?>
<svg xmlns:dc="http://purl.org/dc/elements/1.1/" xmlns:cc="http://creativecommons.org/ns#" xmlns:rdf="http://www.w3.org/1999/02/22-rdf-syntax-ns#" xmlns:sodipodi="http://sodipodi.sourceforge.net/DTD/sodipodi-0.dtd" xmlns:inkscape="http://www.inkscape.org/namespaces/inkscape" xmlns="http://www.w3.org/2000/svg" height="16" width="16" id="svg2" version="1.1" inkscape:version="0.48.4 r9939" sodipodi:docname="image.svg">
  <metadata id="metadata10">
    <rdf:RDF>
      <cc:Work rdf:about="">
        <dc:format>image/svg+xml</dc:format>
        <dc:type rdf:resource="http://purl.org/dc/dcmitype/StillImage" /> </cc:Work>
    </rdf:RDF>
  </metadata>
  <defs id="defs8" />
  <sodipodi:namedview pagecolor="#ffffff" bordercolor="#666666" borderopacity="1" objecttolerance="10" gridtolerance="10" guidetolerance="10" inkscape:pageopacity="0" inkscape:pageshadow="2" inkscape:window-width="1920" inkscape:window-height="1056" id="namedview6" showgrid="false" inkscape:zoom="14.75" inkscape:cx="6" inkscape:cy="8" inkscape:window-x="0" inkscape:window-y="24" inkscape:window-maximized="1" inkscape:current-layer="svg2" />
  <path d="M 6,9 H 5 V 8 H 6 V 9 z M 6,6 H 5 V 7 H 6 V 6 z M 6,4 H 5 V 5 H 6 V 4 z M 6,2 H 5 V 3 H 6 V 2 z m 8,-1 v 12 c 0,0.55 -0.45,1 -1,1 H 8 v 2 L 6.5,14.5 5,16 V 14 H 3 C 2.45,14 2,13.55 2,13 V 1 C 2,0.45 2.45,0 3,0 h 10 c 0.55,0 1,0.45 1,1 z M 13,11 H 3 v 2 h 2 v -1 h 3 v 1 h 5 V 11 z M 13,1 H 4 v 9 h 9 V 1 z" id="path4" inkscape:connector-curvature="0" /> </svg>
